symbolic/16x16/panel/hp-indicator.svg

<svg xmlns="http://www.w3.org/2000/svg" width="16" height="16" version="1">
 <defs>
  <style id="current-color-scheme" type="text/css">
   .ColorScheme-Text { color:#323a41; } .ColorScheme-Highlight { color:#4285f4; } .ColorScheme-NeutralText { color:#ff9800; } .ColorScheme-PositiveText { color:#4caf50; } .ColorScheme-NegativeText { color:#f44336; }
  </style>
 </defs>
 <path style="fill:currentColor" class="ColorScheme-Text" d="M 8,1 C 7.86,1 7.7226,1.0124 7.5844,1.0205 7.1723,2.1963 6.7532,3.877 6.3474,5.0259 6.9213,5.0473 7.8084,5.1334 8.2083,5.6514 8.3964,5.8954 8.3806,6.2771 8.2704,6.5742 7.7506,8.0307 7.2178,9.5553 6.7012,11.011 6.2448,11.018 5.7904,11.008 5.334,11.011 5.2701,11.01 5.2091,11.022 5.1477,10.998 5.7292,9.4005 6.2988,7.7158 6.8704,6.1127 6.5983,6.1088 6.3287,6.1178 6.0553,6.1127 6.0139,6.2004 5.9791,6.2981 5.9476,6.3896 5.4209,7.8671 4.8892,9.4092 4.365,10.889 4.34,10.926 4.3472,11.011 4.2881,11.011 3.852,11.013 3.4157,11.009 2.9808,11.011 2.9017,11.01 2.8264,11.019 2.75,10.996 3.7891,8.1178 4.8344,4.3109 5.8757,1.3285 3.0428,2.2239 1,4.8634 1,7.9996 1,11.219 3.1528,13.909 6.1013,14.733 7.2432,11.558 8.5591,8.2404 9.6695,5.1271 9.6809,5.1034 9.6896,5.0452 9.7001,5.0211 V 5.0194 C 10.432,5.0271 11.183,5.0335 11.915,5.0348 12.154,5.04 12.389,5.0081 12.623,5.0809 12.891,5.1537 13.14,5.3629 13.221,5.6364 13.282,5.85 13.236,6.0749 13.159,6.2806 12.693,7.6419 12.212,9.021 11.731,10.376 11.61,10.729 11.062,10.947 10.7,10.96 10.129,10.972 9.5619,10.964 8.9914,10.975 8.5171,12.296 7.8224,13.591 7.3079,14.966 7.5354,14.988 7.7664,15 8,15 11.878,15 15,11.878 15,8.0005 15,4.1223 11.878,1.0005 8,1.0005 Z M 6.1014,14.732 C 6.2962,14.787 6.493,14.836 6.6944,14.874 6.4939,14.835 6.2958,14.787 6.1014,14.732 Z M 5.8758,1.3281 C 6.1472,1.2423 6.4261,1.1742 6.7114,1.123 6.4267,1.1757 6.1471,1.2424 5.8758,1.3281 Z M 6.7114,1.123 C 6.9957,1.0721 7.286,1.0378 7.5809,1.0205 7.286,1.0378 6.9953,1.0706 6.7114,1.123 Z M 11.076,5.8784 C 11.053,5.8758 11.03,5.8749 11.007,5.8818 V 5.88 C 10.992,5.8839 10.973,5.8982 10.962,5.9108 10.463,7.3073 9.9696,8.7375 9.47,10.131 9.7448,10.132 10.026,10.149 10.3,10.131 10.784,8.7244 11.286,7.2843 11.776,5.8817 11.566,5.8765 11.358,5.8855 11.146,5.8817 11.124,5.8849 11.099,5.8808 11.076,5.8783 Z M 6.7487,14.883 C 6.9312,14.916 7.1151,14.947 7.3027,14.965 7.1148,14.947 6.9311,14.918 6.7487,14.883 Z"/>
</svg>

<svg xmlns="http://www.w3.org/2000/svg" width="16" height="16" version="1"><defs><style id="current-color-scheme" type="text/css"></style></defs><path style="fill:currentColor;color:#323a41" d="M8 1c-.14 0-.277.012-.416.02-.412 1.176-.83 2.857-1.237 4.006.574.021 1.461.107 1.861.625.188.244.173.626.062.923-.52 1.457-1.052 2.981-1.569 4.437-.456.007-.91-.003-1.367 0-.064-.001-.125.011-.186-.013.581-1.598 1.15-3.282 1.722-4.885-.272-.004-.541.005-.815 0a2.777 2.777 0 0 0-.107.277c-.527 1.477-1.059 3.02-1.583 4.499-.025.037-.018.122-.077.122-.436.002-.872-.002-1.307 0-.08-.001-.155.008-.231-.015 1.04-2.878 2.084-6.685 3.126-9.668A6.981 6.981 0 0 0 1 8c0 3.219 2.153 5.909 5.101 6.733C7.243 11.558 8.56 8.24 9.67 5.127c.012-.024.02-.082.031-.106V5.02c.732.008 1.483.014 2.215.016.239.005.474-.027.708.046.268.073.517.282.598.555.061.214.015.439-.062.645-.466 1.36-.947 2.74-1.428 4.095-.121.353-.669.571-1.031.584-.571.012-1.138.004-1.709.015-.474 1.321-1.169 2.616-1.683 3.991A6.985 6.985 0 0 0 15 8.001c0-3.879-3.122-7-7-7zM6.101 14.732zM5.876 1.328zm.835-.205zm4.365 4.755a.17.17 0 0 0-.069.004V5.88a.107.107 0 0 0-.045.03c-.499 1.397-.992 2.828-1.492 4.221.275.001.556.018.83 0 .484-1.407.986-2.847 1.476-4.25-.21-.005-.418.005-.63 0-.022.004-.047 0-.07-.003zm-4.327 9.005z"/></svg>
